src/components/00-materials/images-raw/Fishing.svg

<svg width="96" height="96" viewBox="0 0 96 96" fill="none" xmlns="http://www.w3.org/2000/svg">
<path d="M19.6 25.8299V45.8299C19.6 52.3799 22.6 57.5099 28.99 57.5099C35.38 57.5099 39.38 53.3799 39.38 46.8299V38.6699L33.13 47.7599H35.8M19.6 11.6299V19.6299" stroke="#00008F" stroke-width="2" stroke-linecap="round" stroke-linejoin="round"/>
<mask id="path-3-inside-1" fill="white">
<path d="M49.54 16.6601C53.26 16.9601 62.26 18.6601 70.48 27.8101C77.48 35.5801 77.34 50.3101 76.09 54.8601C75.1441 58.3868 73.8022 61.7951 72.09 65.0201C71.9127 65.3269 71.8202 65.6753 71.8218 66.0297C71.8235 66.384 71.9192 66.7316 72.0993 67.0367C72.2793 67.3419 72.5372 67.5938 72.8466 67.7666C73.156 67.9394 73.5057 68.0268 73.86 68.0201C74.1141 68.0196 74.3657 67.9686 74.6 67.8701C75.4745 67.5239 76.3093 67.0847 77.09 66.5601C77.2859 67.3265 77.3249 68.1247 77.2046 68.9066C77.0843 69.6885 76.8072 70.438 76.39 71.1101C76.1387 71.6653 75.7546 72.1501 75.2714 72.5216C74.7883 72.8931 74.2211 73.1399 73.62 73.2401C71.7689 73.2251 69.9236 73.0309 68.11 72.6601C67.9737 72.6448 67.8362 72.6448 67.7 72.6601C67.4289 72.6598 67.1606 72.7146 66.9113 72.8211C66.662 72.9277 66.437 73.0839 66.25 73.2801C63.653 76.1289 60.4991 78.4145 56.9832 79.9952C53.4674 81.576 49.6645 82.4183 45.81 82.4701C43.147 82.4427 40.5323 81.7555 38.2 80.4701C38.4394 80.1521 38.6566 79.818 38.85 79.4701C38.9852 79.2278 39.0684 78.9599 39.0945 78.6837C39.1206 78.4074 39.0889 78.1287 39.0014 77.8654C38.9139 77.602 38.7726 77.3597 38.5864 77.1539C38.4003 76.9482 38.1733 76.7834 37.92 76.6701C37.3833 76.445 36.8278 76.2677 36.26 76.1401C37.26 72.6801 39.65 66.3801 44.26 62.1401C44.5093 61.9103 44.6961 61.6208 44.8028 61.2989C44.9095 60.9771 44.9326 60.6333 44.87 60.3001C44.4175 58.4662 44.3629 56.5568 44.71 54.7001L45.71 55.4901C48 57.2401 49 57.8001 49.92 57.8001C50.0729 57.8154 50.227 57.8154 50.38 57.8001C50.5771 57.7618 50.7663 57.6908 50.94 57.5901L51.12 57.4901H51.18C57.24 53.8901 64.12 49.8901 67 39.0001C67.0484 38.8277 67.072 38.6492 67.07 38.4701C67.07 35.4701 65.99 31.3601 63.67 29.0301C63.1458 28.4747 62.5155 28.0301 61.8164 27.7227C61.1173 27.4152 60.3636 27.2511 59.6 27.2401C57.46 27.2401 52.07 28.3301 48.65 29.0601C49.5855 27.5235 50.768 26.1518 52.15 25.0001C52.3629 24.8424 52.5424 24.6439 52.678 24.4162C52.8136 24.1885 52.9026 23.9361 52.9398 23.6738C52.9771 23.4114 52.9618 23.1442 52.8948 22.8878C52.8279 22.6314 52.7107 22.3908 52.55 22.1801C51.3147 20.4888 50.3062 18.6431 49.55 16.6901L49.54 16.6601ZM48.14 14.5901H48C47.849 14.5958 47.7013 14.6357 47.5679 14.7067C47.4346 14.7777 47.319 14.878 47.23 15.0001C47.1419 15.1268 47.0843 15.2722 47.0617 15.4248C47.0392 15.5775 47.0523 15.7333 47.1 15.8801C48.0099 18.5582 49.3252 21.0808 51 23.3601C48.54 25.1801 46.48 28.7901 45.76 30.0501C45.68 30.2 45.6396 30.3679 45.6425 30.5378C45.6454 30.7077 45.6916 30.8741 45.7767 31.0212C45.8617 31.1683 45.9829 31.2913 46.1287 31.3786C46.2745 31.4659 46.4401 31.5146 46.61 31.5201H46.83C51.7 30.4101 57.64 29.2301 59.66 29.2301C60.16 29.2401 60.6527 29.3516 61.1082 29.5579C61.5638 29.7642 61.9726 30.0609 62.31 30.4301C64.23 32.3601 65.11 35.9301 65.13 38.4801C62.4 48.5801 56.2 52.1801 50.17 55.6801L49.98 55.7901H49.92C49.37 55.7901 47.76 54.4901 46.92 53.8601C46.3322 53.3594 45.7144 52.8952 45.07 52.4701L44.87 52.3501H44.64C44.3675 52.3623 44.101 52.434 43.8592 52.5601C43.6173 52.6862 43.406 52.8637 43.24 53.0801C41.88 54.8001 42.64 59.4201 42.86 60.5801C37.32 65.6701 34.86 73.4301 33.96 76.7501C33.9138 76.951 33.946 77.162 34.05 77.3401C34.108 77.433 34.1837 77.5136 34.273 77.5771C34.3622 77.6406 34.4632 77.6858 34.57 77.7101C35.4273 77.8523 36.2681 78.0801 37.08 78.3901C36.8156 78.8376 36.5146 79.2624 36.18 79.6601C35.92 80.0001 35.52 80.3301 35.58 80.8001C35.5957 80.9128 35.635 81.0209 35.6953 81.1174C35.7556 81.2139 35.8356 81.2966 35.93 81.3601C38.8633 83.2721 42.2789 84.3124 45.78 84.3601C49.9057 84.3092 53.977 83.4123 57.7422 81.725C61.5074 80.0376 64.8863 77.5956 67.67 74.5501C69.6174 74.9566 71.6006 75.1676 73.59 75.1801C75.27 75.1801 76.95 74.0101 78.09 72.0501C78.769 70.986 79.1649 69.766 79.2401 68.5059C79.3154 67.2459 79.0675 65.9875 78.52 64.8501C78.4313 64.6956 78.3103 64.5621 78.1654 64.4585C78.0204 64.355 77.8549 64.2839 77.68 64.2501C77.5772 64.2355 77.4728 64.2355 77.37 64.2501C77.0098 64.2494 76.659 64.3651 76.37 64.5801C75.5992 65.1505 74.7633 65.6272 73.88 66.0001C75.6484 62.6298 77.0305 59.0706 78 55.3901C79.37 50.3901 79.57 34.9301 72 26.4701C61.78 15.1701 50.55 14.5901 48.14 14.5901Z"/>
</mask>
<path d="M49.54 16.6601C53.26 16.9601 62.26 18.6601 70.48 27.8101C77.48 35.5801 77.34 50.3101 76.09 54.8601C75.1441 58.3868 73.8022 61.7951 72.09 65.0201C71.9127 65.3269 71.8202 65.6753 71.8218 66.0297C71.8235 66.384 71.9192 66.7316 72.0993 67.0367C72.2793 67.3419 72.5372 67.5938 72.8466 67.7666C73.156 67.9394 73.5057 68.0268 73.86 68.0201C74.1141 68.0196 74.3657 67.9686 74.6 67.8701C75.4745 67.5239 76.3093 67.0847 77.09 66.5601C77.2859 67.3265 77.3249 68.1247 77.2046 68.9066C77.0843 69.6885 76.8072 70.438 76.39 71.1101C76.1387 71.6653 75.7546 72.1501 75.2714 72.5216C74.7883 72.8931 74.2211 73.1399 73.62 73.2401C71.7689 73.2251 69.9236 73.0309 68.11 72.6601C67.9737 72.6448 67.8362 72.6448 67.7 72.6601C67.4289 72.6598 67.1606 72.7146 66.9113 72.8211C66.662 72.9277 66.437 73.0839 66.25 73.2801C63.653 76.1289 60.4991 78.4145 56.9832 79.9952C53.4674 81.576 49.6645 82.4183 45.81 82.4701C43.147 82.4427 40.5323 81.7555 38.2 80.4701C38.4394 80.1521 38.6566 79.818 38.85 79.4701C38.9852 79.2278 39.0684 78.9599 39.0945 78.6837C39.1206 78.4074 39.0889 78.1287 39.0014 77.8654C38.9139 77.602 38.7726 77.3597 38.5864 77.1539C38.4003 76.9482 38.1733 76.7834 37.92 76.6701C37.3833 76.445 36.8278 76.2677 36.26 76.1401C37.26 72.6801 39.65 66.3801 44.26 62.1401C44.5093 61.9103 44.6961 61.6208 44.8028 61.2989C44.9095 60.9771 44.9326 60.6333 44.87 60.3001C44.4175 58.4662 44.3629 56.5568 44.71 54.7001L45.71 55.4901C48 57.2401 49 57.8001 49.92 57.8001C50.0729 57.8154 50.227 57.8154 50.38 57.8001C50.5771 57.7618 50.7663 57.6908 50.94 57.5901L51.12 57.4901H51.18C57.24 53.8901 64.12 49.8901 67 39.0001C67.0484 38.8277 67.072 38.6492 67.07 38.4701C67.07 35.4701 65.99 31.3601 63.67 29.0301C63.1458 28.4747 62.5155 28.0301 61.8164 27.7227C61.1173 27.4152 60.3636 27.2511 59.6 27.2401C57.46 27.2401 52.07 28.3301 48.65 29.0601C49.5855 27.5235 50.768 26.1518 52.15 25.0001C52.3629 24.8424 52.5424 24.6439 52.678 24.4162C52.8136 24.1885 52.9026 23.9361 52.9398 23.6738C52.9771 23.4114 52.9618 23.1442 52.8948 22.8878C52.8279 22.6314 52.7107 22.3908 52.55 22.1801C51.3147 20.4888 50.3062 18.6431 49.55 16.6901L49.54 16.6601ZM48.14 14.5901H48C47.849 14.5958 47.7013 14.6357 47.5679 14.7067C47.4346 14.7777 47.319 14.878 47.23 15.0001C47.1419 15.1268 47.0843 15.2722 47.0617 15.4248C47.0392 15.5775 47.0523 15.7333 47.1 15.8801C48.0099 18.5582 49.3252 21.0808 51 23.3601C48.54 25.1801 46.48 28.7901 45.76 30.0501C45.68 30.2 45.6396 30.3679 45.6425 30.5378C45.6454 30.7077 45.6916 30.8741 45.7767 31.0212C45.8617 31.1683 45.9829 31.2913 46.1287 31.3786C46.2745 31.4659 46.4401 31.5146 46.61 31.5201H46.83C51.7 30.4101 57.64 29.2301 59.66 29.2301C60.16 29.2401 60.6527 29.3516 61.1082 29.5579C61.5638 29.7642 61.9726 30.0609 62.31 30.4301C64.23 32.3601 65.11 35.9301 65.13 38.4801C62.4 48.5801 56.2 52.1801 50.17 55.6801L49.98 55.7901H49.92C49.37 55.7901 47.76 54.4901 46.92 53.8601C46.3322 53.3594 45.7144 52.8952 45.07 52.4701L44.87 52.3501H44.64C44.3675 52.3623 44.101 52.434 43.8592 52.5601C43.6173 52.6862 43.406 52.8637 43.24 53.0801C41.88 54.8001 42.64 59.4201 42.86 60.5801C37.32 65.6701 34.86 73.4301 33.96 76.7501C33.9138 76.951 33.946 77.162 34.05 77.3401C34.108 77.433 34.1837 77.5136 34.273 77.5771C34.3622 77.6406 34.4632 77.6858 34.57 77.7101C35.4273 77.8523 36.2681 78.0801 37.08 78.3901C36.8156 78.8376 36.5146 79.2624 36.18 79.6601C35.92 80.0001 35.52 80.3301 35.58 80.8001C35.5957 80.9128 35.635 81.0209 35.6953 81.1174C35.7556 81.2139 35.8356 81.2966 35.93 81.3601C38.8633 83.2721 42.2789 84.3124 45.78 84.3601C49.9057 84.3092 53.977 83.4123 57.7422 81.725C61.5074 80.0376 64.8863 77.5956 67.67 74.5501C69.6174 74.9566 71.6006 75.1676 73.59 75.1801C75.27 75.1801 76.95 74.0101 78.09 72.0501C78.769 70.986 79.1649 69.766 79.2401 68.5059C79.3154 67.2459 79.0675 65.9875 78.52 64.8501C78.4313 64.6956 78.3103 64.5621 78.1654 64.4585C78.0204 64.355 77.8549 64.2839 77.68 64.2501C77.5772 64.2355 77.4728 64.2355 77.37 64.2501C77.0098 64.2494 76.659 64.3651 76.37 64.5801C75.5992 65.1505 74.7633 65.6272 73.88 66.0001C75.6484 62.6298 77.0305 59.0706 78 55.3901C79.37 50.3901 79.57 34.9301 72 26.4701C61.78 15.1701 50.55 14.5901 48.14 14.5901Z" stroke="#00008F" stroke-width="2" mask="url(#path-3-inside-1)"/>
<path d="M51.6186 67.5V67.5H51.62C52.4501 67.5 53.2463 67.8298 53.8333 68.4168C54.4203 69.0038 54.75 69.7999 54.75 70.63L54.75 70.6314C54.7517 71.2531 54.5688 71.8614 54.2244 72.3791C53.8801 72.8968 53.3897 73.3006 52.8156 73.5393C52.2415 73.7781 51.6095 73.841 50.9996 73.7201C50.3897 73.5992 49.8294 73.3 49.3897 72.8603C48.9501 72.4207 48.6508 71.8604 48.5299 71.2505C48.4091 70.6406 48.472 70.0085 48.7107 69.4344C48.9494 68.8603 49.3532 68.37 49.8709 68.0256C50.3886 67.6812 50.9969 67.4983 51.6186 67.5ZM53.0632 69.182C52.6975 68.7866 52.196 68.5436 51.659 68.5015C51.3648 68.4785 51.069 68.5166 50.7903 68.6134C50.5115 68.7101 50.2557 68.8635 50.0391 69.0639C49.8224 69.2642 49.6495 69.5072 49.5313 69.7776C49.4131 70.048 49.3521 70.3399 49.3521 70.635C49.3521 70.9301 49.4131 71.222 49.5313 71.4924C49.6495 71.7628 49.8224 72.0058 50.0391 72.2062C50.2557 72.4065 50.5115 72.5599 50.7903 72.6567C51.0691 72.7535 51.3648 72.7915 51.659 72.7685C52.196 72.7265 52.6975 72.4835 53.0632 72.088C53.4289 71.6925 53.6321 71.1737 53.6321 70.635C53.6321 70.0964 53.4289 69.5775 53.0632 69.182Z" stroke="#00008F"/>
<path d="M19.52 25.5899C21.083 25.5899 22.35 24.3229 22.35 22.7599C22.35 21.197 21.083 19.9299 19.52 19.9299C17.957 19.9299 16.69 21.197 16.69 22.7599C16.69 24.3229 17.957 25.5899 19.52 25.5899Z" stroke="#00008F" stroke-width="2" stroke-miterlimit="10"/>
</svg>

<svg width="96" height="96" viewBox="0 0 96 96" fill="none" xmlns="http://www.w3.org/2000/svg"><path d="M19.6 25.83v20c0 6.55 3 11.68 9.39 11.68 6.39 0 10.39-4.13 10.39-10.68v-8.16l-6.25 9.09h2.67M19.6 11.63v8" stroke="#00008F" stroke-width="2" stroke-linecap="round" stroke-linejoin="round"/><mask id="a" fill="#fff"><path d="M49.54 16.66c3.72.3 12.72 2 20.94 11.15 7 7.77 6.86 22.5 5.61 27.05a48.411 48.411 0 01-4 10.16 2 2 0 001.77 3c.254 0 .506-.051.74-.15a13.13 13.13 0 002.49-1.31 5.87 5.87 0 01-.7 4.55 3.71 3.71 0 01-2.77 2.13 28.667 28.667 0 01-5.51-.58 1.837 1.837 0 00-.41 0 2.002 2.002 0 00-1.45.62 28.17 28.17 0 01-20.44 9.19 16.11 16.11 0 01-7.61-2c.24-.318.457-.652.65-1a2 2 0 00-.93-2.8 9.91 9.91 0 00-1.66-.53c1-3.46 3.39-9.76 8-14a2 2 0 00.61-1.84 13.229 13.229 0 01-.16-5.6l1 .79C48 57.24 49 57.8 49.92 57.8c.153.015.307.015.46 0 .197-.038.386-.11.56-.21l.18-.1h.06C57.24 53.89 64.12 49.89 67 39c.048-.172.072-.35.07-.53 0-3-1.08-7.11-3.4-9.44a5.708 5.708 0 00-4.07-1.79c-2.14 0-7.53 1.09-10.95 1.82a16.358 16.358 0 013.5-4.06 2 2 0 00.4-2.82 24.001 24.001 0 01-3-5.49l-.01-.03zm-1.4-2.07H48a1 1 0 00-.77.41 1 1 0 00-.13.88 27.66 27.66 0 003.9 7.48c-2.46 1.82-4.52 5.43-5.24 6.69a1 1 0 00.85 1.47h.22c4.87-1.11 10.81-2.29 12.83-2.29a3.689 3.689 0 012.65 1.2c1.92 1.93 2.8 5.5 2.82 8.05-2.73 10.1-8.93 13.7-14.96 17.2l-.19.11h-.06c-.55 0-2.16-1.3-3-1.93-.588-.5-1.206-.965-1.85-1.39l-.2-.12h-.23a1.87 1.87 0 00-1.4.73c-1.36 1.72-.6 6.34-.38 7.5-5.54 5.09-8 12.85-8.9 16.17a.81.81 0 00.09.59.83.83 0 00.52.37 13 13 0 012.51.68 9.4 9.4 0 01-.9 1.27c-.26.34-.66.67-.6 1.14a.81.81 0 00.35.56 18.5 18.5 0 009.85 3 30.161 30.161 0 0021.89-9.81c1.947.407 3.93.618 5.92.63 1.68 0 3.36-1.17 4.5-3.13a7.41 7.41 0 00.43-7.2 1.241 1.241 0 00-.84-.6 1.103 1.103 0 00-.31 0c-.36 0-.711.115-1 .33-.77.57-1.607 1.047-2.49 1.42A50.548 50.548 0 0078 55.39c1.37-5 1.57-20.46-6-28.92-10.22-11.3-21.45-11.88-23.86-11.88z"/></mask><path d="M49.54 16.66c3.72.3 12.72 2 20.94 11.15 7 7.77 6.86 22.5 5.61 27.05a48.411 48.411 0 01-4 10.16 2 2 0 001.77 3c.254 0 .506-.051.74-.15a13.13 13.13 0 002.49-1.31 5.87 5.87 0 01-.7 4.55 3.71 3.71 0 01-2.77 2.13 28.667 28.667 0 01-5.51-.58 1.837 1.837 0 00-.41 0 2.002 2.002 0 00-1.45.62 28.17 28.17 0 01-20.44 9.19 16.11 16.11 0 01-7.61-2c.24-.318.457-.652.65-1a2 2 0 00-.93-2.8 9.91 9.91 0 00-1.66-.53c1-3.46 3.39-9.76 8-14a2 2 0 00.61-1.84 13.229 13.229 0 01-.16-5.6l1 .79C48 57.24 49 57.8 49.92 57.8c.153.015.307.015.46 0 .197-.038.386-.11.56-.21l.18-.1h.06C57.24 53.89 64.12 49.89 67 39c.048-.172.072-.35.07-.53 0-3-1.08-7.11-3.4-9.44a5.708 5.708 0 00-4.07-1.79c-2.14 0-7.53 1.09-10.95 1.82a16.358 16.358 0 013.5-4.06 2 2 0 00.4-2.82 24.001 24.001 0 01-3-5.49l-.01-.03zm-1.4-2.07H48a1 1 0 00-.77.41 1 1 0 00-.13.88 27.66 27.66 0 003.9 7.48c-2.46 1.82-4.52 5.43-5.24 6.69a1 1 0 00.85 1.47h.22c4.87-1.11 10.81-2.29 12.83-2.29a3.689 3.689 0 012.65 1.2c1.92 1.93 2.8 5.5 2.82 8.05-2.73 10.1-8.93 13.7-14.96 17.2l-.19.11h-.06c-.55 0-2.16-1.3-3-1.93-.588-.5-1.206-.965-1.85-1.39l-.2-.12h-.23a1.87 1.87 0 00-1.4.73c-1.36 1.72-.6 6.34-.38 7.5-5.54 5.09-8 12.85-8.9 16.17a.81.81 0 00.09.59.83.83 0 00.52.37 13 13 0 012.51.68 9.4 9.4 0 01-.9 1.27c-.26.34-.66.67-.6 1.14a.81.81 0 00.35.56 18.5 18.5 0 009.85 3 30.161 30.161 0 0021.89-9.81c1.947.407 3.93.618 5.92.63 1.68 0 3.36-1.17 4.5-3.13a7.41 7.41 0 00.43-7.2 1.241 1.241 0 00-.84-.6 1.103 1.103 0 00-.31 0c-.36 0-.711.115-1 .33-.77.57-1.607 1.047-2.49 1.42A50.548 50.548 0 0078 55.39c1.37-5 1.57-20.46-6-28.92-10.22-11.3-21.45-11.88-23.86-11.88z" stroke="#00008F" stroke-width="2" mask="url(#a)"/><path d="M51.619 67.5v0h.001a3.13 3.13 0 013.13 3.13v.001a3.14 3.14 0 11-3.131-3.131zm1.444 1.682a2.14 2.14 0 10-3.143 2.907 2.14 2.14 0 003.143-2.907z" stroke="#00008F"/><path d="M19.52 25.59a2.83 2.83 0 100-5.66 2.83 2.83 0 000 5.66z" stroke="#00008F" stroke-width="2" stroke-miterlimit="10"/></svg>
